html/dist/img/svg/cells.svg

<svg width="79" height="79" viewBox="0 0 79 79" fill="none" xmlns="http://www.w3.org/2000/svg">
<circle cx="39.5" cy="39.5" r="39.5" fill="#F16B84"/>
<path fill-rule="evenodd" clip-rule="evenodd" d="M40.7564 19.565C39.0867 19.7453 37.7348 21.0376 37.4514 22.7241C37.1455 24.5457 38.4138 26.4424 40.253 26.9134C42.4338 27.4719 44.6154 26.0722 44.9998 23.8678C45.298 22.1583 44.2136 20.3336 42.5546 19.7532C42.0654 19.5821 41.3202 19.5041 40.7564 19.565ZM42.2208 21.1497C42.7582 21.377 43.3084 21.9668 43.493 22.5135C43.809 23.449 43.4706 24.5458 42.684 25.1357C42.2109 25.4905 41.8438 25.6036 41.1657 25.6036C39.808 25.6036 38.7609 24.4854 38.8562 23.137C38.9741 21.4675 40.6424 20.482 42.2208 21.1497ZM28.1541 25.0159C25.127 25.3814 22.4344 26.8663 20.7036 29.1248C20.0607 29.9637 19.3876 31.3289 19.1248 32.327C18.8654 33.3122 18.7772 34.8791 18.9252 35.8741C19.5277 39.9261 22.9828 43.2426 27.4258 44.034C28.4542 44.2172 30.2816 44.2172 31.31 44.034C35.4443 43.2977 38.6993 40.4163 39.649 36.6524C39.8853 35.716 39.9422 34.1478 39.7761 33.1534C39.3478 30.5911 37.7582 28.245 35.4372 26.7497C34.2036 25.955 33.026 25.4798 31.51 25.1652C30.8849 25.0354 28.7713 24.9414 28.1541 25.0159ZM31.0364 26.5207C32.0093 26.685 32.898 26.9796 33.8186 27.4431C36.0372 28.56 37.6087 30.4383 38.2374 32.7248C38.3609 33.1736 38.3896 33.5443 38.3852 34.6344C38.3803 35.8674 38.3606 36.0488 38.1623 36.6858C37.3308 39.3568 35.2067 41.422 32.3688 42.3185C27.3328 43.9092 21.9165 41.2861 20.5388 36.5891C20.0702 34.9917 20.2304 33.0041 20.9541 31.4345C21.5208 30.2058 22.7542 28.7768 23.9057 28.015C24.9835 27.3019 26.3691 26.7482 27.6281 26.5272C28.5013 26.3739 30.149 26.3708 31.0364 26.5207ZM49.6386 26.7206C44.8978 27.4461 41.414 31.6401 41.6988 36.2793C41.7587 37.2548 42.0195 38.3502 42.4244 39.3267C42.7031 39.9987 42.7041 40.0059 42.5308 40.0394C40.8621 40.3622 39.8135 40.7131 38.7845 41.2932C35.0241 43.4127 33.204 47.3742 34.2154 51.238C35.1279 54.7235 38.2583 57.4384 42.1396 58.11C43.0697 58.2709 44.8425 58.2688 45.8069 58.1054C48.3153 57.6806 50.7134 56.2632 52.1948 54.3297C54.174 51.7463 54.5342 48.2218 53.1088 45.3858C52.9566 45.083 52.8517 44.8158 52.8758 44.792C52.8999 44.7683 53.2192 44.6648 53.5854 44.5619C56.008 43.8815 58.17 42.1052 59.3124 39.8567C60.0402 38.4242 60.3196 37.1138 60.2561 35.4301C60.165 33.0124 59.2911 31.0527 57.5386 29.3363C56.1824 28.0082 54.8726 27.2995 52.916 26.8354C52.2838 26.6855 50.3185 26.6166 49.6386 26.7206ZM53.0349 28.3052C53.839 28.5223 54.7027 28.9112 55.4149 29.3767C56.0475 29.7902 57.1606 30.898 57.5573 31.5089C59.0974 33.8803 59.281 36.6903 58.058 39.1697C56.9773 41.3604 54.9326 42.893 52.4233 43.3929C51.4302 43.5907 49.8056 43.5179 48.8294 43.2317C46.1289 42.44 44.0965 40.4009 43.3531 37.7375C43.2035 37.2015 43.1754 36.8936 43.1754 35.7881C43.1754 34.2474 43.2998 33.6725 43.8967 32.4528C44.9898 30.2198 46.8953 28.7554 49.4455 28.1884C50.2286 28.0143 52.1945 28.0783 53.0349 28.3052ZM28.9717 29.5458C28.2386 29.7022 27.2067 30.2295 26.6305 30.7422C24.2577 32.8535 24.3171 36.525 26.7563 38.5129C27.7637 39.3338 28.8196 39.7091 30.1367 39.7142C31.5895 39.7199 32.7637 39.231 33.8259 38.1781C36.0293 35.9944 35.8269 32.5256 33.3806 30.5488C32.2307 29.6196 30.4864 29.2228 28.9717 29.5458ZM49.5577 29.9722C48.5066 30.2759 47.6634 30.8025 47.0577 31.5337C44.99 34.0295 46.1951 37.5936 49.495 38.7429C50.1611 38.9748 51.5537 39.0311 52.309 38.8565C54.6983 38.3044 56.318 36.1271 55.9949 33.9019C55.7216 32.0198 54.2294 30.4501 52.2314 29.9431C51.5682 29.7747 50.1892 29.7897 49.5577 29.9722ZM31.253 31.0148C32.3092 31.3356 33.1345 32.0686 33.6291 33.1252C33.9238 33.7546 33.9889 34.8343 33.7784 35.5989C33.5228 36.5275 32.7532 37.4598 31.8851 37.8923C29.5361 39.0628 26.8042 37.7149 26.3597 35.1663C26.0417 33.3427 27.1976 31.5615 29.0847 30.9675C29.5947 30.807 30.6439 30.8299 31.253 31.0148ZM51.667 31.2595C52.8093 31.4646 53.8355 32.2238 54.3132 33.2169C54.5468 33.7026 54.5741 33.834 54.5744 34.4769C54.5748 35.126 54.5498 35.2449 54.3126 35.7186C53.0446 38.2509 48.9855 38.155 47.75 35.5633C47.5617 35.1685 47.5347 35.0115 47.5347 34.3145C47.5347 33.5739 47.5536 33.4793 47.8007 32.9859C48.4557 31.6775 50.0446 30.9681 51.667 31.2595ZM22.5705 32.3667V33.0828H23.3393H24.108V32.3667V31.6507H23.3393H22.5705V32.3667ZM21.7784 34.5718L21.8018 35.2709H22.5705H23.3393V34.5946V33.9183L22.5472 33.8955L21.7549 33.8727L21.7784 34.5718ZM22.5705 36.8225V37.5386H23.3393H24.108V36.8225V36.1064H23.3393H22.5705V36.8225ZM55.0199 38.2945V38.9708H55.7887H56.5574V38.2945V37.6181H55.7887H55.0199V38.2945ZM53.4824 40.5223V41.1986H54.2916H55.1008V40.5223V39.846H54.2916H53.4824V40.5223ZM44.125 41.9511C45.1233 43.0436 46.5819 43.9781 48.0362 44.4571C48.8229 44.7162 50.0862 44.937 50.7863 44.9378C51.2833 44.9384 51.3639 45.0236 51.8678 46.0809C52.427 47.2542 52.6669 48.6806 52.5116 49.9094C52.1495 52.7748 50.1221 55.1995 47.1734 56.2939C45.9112 56.7624 44.3216 56.9529 42.9672 56.7981C39.8077 56.4369 37.1574 54.6049 35.977 51.9663C34.8599 49.4692 35.3194 46.5597 37.1777 44.3637C38.5725 42.7154 41.0877 41.5072 43.4143 41.3679C43.5284 41.361 43.7578 41.5493 44.125 41.9511ZM43.5291 45.6557C41.8457 45.9435 40.3865 47.2271 39.8674 48.8768C39.6492 49.5704 39.6308 50.7357 39.8283 51.3628C40.1392 52.3505 40.7124 53.1861 41.4656 53.7492C43.4034 55.1978 45.8584 55.0466 47.5829 53.3723C48.5195 52.4631 48.9508 51.447 48.9508 50.1499C48.9508 47.3413 46.3381 45.1756 43.5291 45.6557ZM36.8127 47.0101V47.7293L37.5207 47.7063L38.2288 47.6833L38.2522 46.9871L38.2755 46.2909H37.5441H36.8127V47.0101ZM25.4171 46.9297C24.4164 47.1875 23.8217 47.5258 23.046 48.2789C22.4691 48.839 22.2918 49.0736 22.0226 49.6327C21.6023 50.5056 21.4853 51.0102 21.4874 51.9401C21.4905 53.3381 21.9982 54.499 23.0589 55.5336C25.5456 57.9592 29.6375 57.3141 31.3111 54.2328C31.6606 53.5892 31.8765 52.685 31.8765 51.8645C31.8765 48.5706 28.6416 46.0992 25.4171 46.9297ZM45.3255 47.1715C46.8504 47.6766 47.7711 49.1661 47.4924 50.6773C46.9275 53.7403 42.7515 54.2918 41.4009 51.4819C41.1668 50.9947 41.1433 50.8763 41.1451 50.1897C41.1466 49.5901 41.1856 49.3386 41.3335 48.9735C41.6771 48.1248 42.6521 47.2944 43.5518 47.0842C44.0591 46.9656 44.8166 47.0029 45.3255 47.1715ZM27.755 48.3266C29.3561 48.7862 30.4242 50.1956 30.4328 51.8606C30.4501 55.1418 26.5532 56.8187 24.1002 54.5856C22.5213 53.1484 22.5124 50.7209 24.0804 49.2054C24.9824 48.3336 26.508 47.9687 27.755 48.3266ZM50.4074 49.7918V50.5079H51.1357H51.864V49.7918V49.0757H51.1357H50.4074V49.7918ZM55.7649 53.7766C55.2356 53.9822 54.5579 54.6178 54.2871 55.1626C54.1196 55.4995 54.0893 55.6762 54.0893 56.3163C54.0893 56.944 54.1208 57.1351 54.2752 57.4431C55.1567 59.2027 57.4406 59.5912 58.7988 58.2127C59.5948 57.4049 59.82 56.2182 59.3625 55.2422C59.0913 54.6637 58.599 54.1465 58.0544 53.8683C57.4856 53.5775 56.3901 53.5337 55.7649 53.7766ZM57.5863 55.2229C57.9068 55.436 58.1758 55.9408 58.1758 56.3289C58.1758 56.7687 57.8597 57.2731 57.4508 57.4857C57.0268 57.7062 56.7086 57.7148 56.2678 57.5181C55.1963 57.0396 55.1963 55.6028 56.2678 55.1102C56.6768 54.9222 57.2015 54.967 57.5863 55.2229Z" fill="white"/>
</svg>

<svg width="79" height="79" viewBox="0 0 79 79" fill="none" xmlns="http://www.w3.org/2000/svg"><circle cx="39.5" cy="39.5" r="39.5" fill="#F16B84"/><path fill-rule="evenodd" clip-rule="evenodd" d="M40.756 19.565c-1.67.18-3.021 1.473-3.305 3.16-.306 1.82.963 3.717 2.802 4.188 2.18.559 4.362-.84 4.747-3.045.298-1.71-.786-3.534-2.445-4.115-.49-.17-1.235-.249-1.799-.188zm1.465 1.585c.537.227 1.087.817 1.272 1.364.316.935-.022 2.032-.809 2.622-.473.355-.84.468-1.518.468a2.292 2.292 0 01-2.31-2.467c.118-1.67 1.786-2.655 3.365-1.987zm-14.067 3.866c-3.027.365-5.72 1.85-7.45 4.109-.643.839-1.316 2.204-1.58 3.202-.259.985-.347 2.552-.199 3.547.603 4.052 4.058 7.369 8.5 8.16 1.03.183 2.857.183 3.885 0 4.134-.736 7.39-3.618 8.339-7.382.236-.936.293-2.504.127-3.499-.428-2.562-2.018-4.908-4.339-6.403-1.233-.795-2.411-1.27-3.927-1.585-.625-.13-2.739-.224-3.356-.15zm2.882 1.505a9.587 9.587 0 012.783.922c2.218 1.117 3.79 2.995 4.418 5.282.124.449.153.82.148 1.91-.005 1.232-.024 1.414-.223 2.05-.831 2.672-2.955 4.737-5.793 5.633-5.036 1.591-10.453-1.032-11.83-5.729-.469-1.597-.309-3.585.415-5.154.567-1.23 1.8-2.658 2.952-3.42a10.317 10.317 0 013.722-1.488c.873-.153 2.521-.156 3.408-.006zm18.603.2c-4.741.725-8.225 4.92-7.94 9.558.06.976.32 2.071.725 3.048.28.672.28.679.107.712-1.669.323-2.718.674-3.746 1.254-3.76 2.12-5.581 6.081-4.57 9.945.913 3.486 4.043 6.2 7.925 6.872.93.16 2.703.159 3.667-.005 2.508-.424 4.906-1.842 6.388-3.775 1.979-2.584 2.34-6.108.914-8.944-.152-.303-.257-.57-.233-.594.024-.024.343-.127.71-.23 2.422-.68 4.584-2.457 5.726-4.705.728-1.433 1.008-2.743.944-4.427-.091-2.418-.965-4.377-2.717-6.094-1.357-1.328-2.666-2.037-4.623-2.5-.632-.15-2.597-.22-3.277-.115zm3.396 1.584a8.643 8.643 0 012.38 1.072c.633.413 1.746 1.521 2.142 2.132 1.54 2.371 1.724 5.181.501 7.66-1.08 2.191-3.125 3.724-5.635 4.224-.993.198-2.617.125-3.594-.161-2.7-.792-4.733-2.831-5.476-5.495-.15-.535-.178-.843-.178-1.949 0-1.54.125-2.115.722-3.335 1.093-2.233 2.998-3.698 5.549-4.265.783-.174 2.748-.11 3.589.117zm-24.063 1.24c-.733.157-1.765.684-2.341 1.197-2.373 2.111-2.314 5.783.125 7.77 1.008.822 2.064 1.197 3.38 1.202 1.454.006 2.628-.483 3.69-1.536 2.203-2.184 2-5.652-.445-7.63-1.15-.928-2.895-1.325-4.41-1.002zm20.586.427c-1.051.304-1.895.83-2.5 1.562-2.068 2.495-.863 6.06 2.437 7.209.666.232 2.059.288 2.814.113 2.39-.552 4.009-2.729 3.686-4.954-.273-1.882-1.766-3.452-3.764-3.959-.663-.168-2.042-.153-2.673.03zm-18.305 1.043c1.056.32 1.882 1.054 2.376 2.11.295.63.36 1.71.15 2.474-.256.929-1.026 1.86-1.894 2.293-2.349 1.17-5.08-.177-5.525-2.726-.318-1.823.838-3.604 2.725-4.198.51-.161 1.559-.138 2.168.047zm20.414.244c1.142.206 2.169.965 2.646 1.958.234.486.261.617.261 1.26 0 .649-.024.768-.261 1.242-1.268 2.532-5.328 2.436-6.563-.156-.188-.395-.215-.552-.215-1.248 0-.741.019-.836.266-1.33.655-1.308 2.244-2.017 3.866-1.726zM22.57 32.367v.716h1.538V31.65h-1.537v.716zm-.792 2.205l.024.699h1.538v-1.353l-.793-.023-.792-.022.023.699zm.793 2.25v.717h1.537v-1.433h-1.537v.716zm32.449 1.472v.677h1.537v-1.353H55.02v.676zm-1.538 2.228v.677h1.619v-1.353h-1.619v.676zm-9.357 1.43c.998 1.092 2.457 2.026 3.911 2.505.787.26 2.05.48 2.75.48.497.001.578.087 1.082 1.144.559 1.173.799 2.6.644 3.828-.362 2.866-2.39 5.29-5.339 6.385-1.262.468-2.851.659-4.206.504-3.16-.361-5.81-2.193-6.99-4.832-1.117-2.497-.658-5.406 1.2-7.602 1.395-1.649 3.91-2.857 6.237-2.996.114-.007.344.181.711.583zm-.596 3.704c-1.683.288-3.143 1.571-3.662 3.22-.218.694-.236 1.86-.039 2.487.311.987.884 1.823 1.638 2.386 1.937 1.449 4.392 1.298 6.117-.377.937-.909 1.368-1.925 1.368-3.222 0-2.809-2.613-4.974-5.422-4.494zm-6.716 1.354v.72l.708-.024.708-.023.023-.696.023-.696h-1.462v.72zm-11.396-.08c-1 .258-1.595.596-2.371 1.349-.577.56-.754.795-1.023 1.354-.42.873-.538 1.377-.536 2.307.004 1.398.511 2.559 1.572 3.594 2.487 2.425 6.578 1.78 8.252-1.301.35-.644.566-1.548.566-2.368 0-3.294-3.235-5.766-6.46-4.935zm19.908.242c1.525.505 2.446 1.994 2.167 3.505-.564 3.063-4.74 3.615-6.091.805-.234-.487-.258-.606-.256-1.292.002-.6.04-.851.188-1.216.344-.85 1.32-1.68 2.219-1.89.507-.118 1.265-.081 1.773.087zm-17.57 1.155a3.656 3.656 0 012.678 3.534c.017 3.28-3.88 4.958-6.333 2.725-1.579-1.438-1.588-3.865-.02-5.38.902-.872 2.428-1.237 3.675-.88zm22.652 1.465v.716h1.457v-1.432h-1.457v.716zm5.358 3.985c-.53.205-1.207.84-1.478 1.386-.167.337-.198.513-.198 1.153 0 .628.032.82.186 1.127.882 1.76 3.166 2.148 4.524.77.796-.808 1.021-1.995.563-2.97a3.037 3.037 0 00-1.308-1.375c-.568-.29-1.664-.334-2.29-.091zm1.821 1.446c.32.213.59.718.59 1.106 0 .44-.316.944-.725 1.157-.424.22-.742.229-1.183.032-1.072-.478-1.072-1.915 0-2.408a1.397 1.397 0 011.318.113z" fill="#fff"/></svg>
